X: 19890
T: Jig For Christina
R: jig
M: 6/8
K: Bmixolydian
B2E B2E|FE2 EGB|ez e2 =d=c|B2A ABc|
d4 ef|B3 Bcd|eEE dEE|c2B Bce|
AB2 B2E|FE2 EGB|ez e2 =d=c|B2A ABc|
d4 ef|c4 Bc|d4 ef|age ~f3|
e2B fgd|e3 Bce|=dz d2 ed|=d2 c2 ^de|
B3 BeB|ABA AGF|G2F GBc|EFB FED|E3 B3|
e2B fga|g4 fe|=d2 d2 ed|=d2 c2 ^de|
B3 BeB|ABA AGF|G2B c2B|EFB FED|E3 E3|

